public/img/duration.svg

<svg width="19" height="19" viewBox="0 0 19 19" fill="none" xmlns="http://www.w3.org/2000/svg">
<path d="M9.50009 16.625C9.2813 16.625 9.10425 16.802 9.10425 17.0208V18.6042C9.10425 18.823 9.2813 19 9.50009 19C9.71889 19 9.89594 18.823 9.89594 18.6042V17.0208C9.89594 16.802 9.71889 16.625 9.50009 16.625Z" fill="#234cad"/>
<path d="M5.2904 1.41745C5.18138 1.22804 4.93942 1.1631 4.74998 1.2725C4.56057 1.3819 4.49563 1.62389 4.6054 1.81329L5.00125 2.49904C5.07391 2.62584 5.20769 2.69694 5.34373 2.69694C5.41101 2.69694 5.47903 2.67994 5.54163 2.64399C5.73104 2.53459 5.79598 2.2926 5.68621 2.10319L5.2904 1.41745Z" fill="#234cad"/>
<path d="M13.9987 16.5009C13.8896 16.3115 13.6469 16.2469 13.4582 16.356C13.2688 16.4654 13.2039 16.7073 13.3137 16.8967L13.7095 17.5825C13.7822 17.7093 13.9159 17.7804 14.052 17.7804C14.1193 17.7804 14.1873 17.7634 14.2499 17.7274C14.4393 17.618 14.5042 17.3761 14.3945 17.1866L13.9987 16.5009Z" fill="#234cad"/>
<path d="M2.49876 5.00078L1.81379 4.60494C1.62517 4.4971 1.38318 4.56048 1.27337 4.74989C1.1636 4.93892 1.22854 5.18128 1.41795 5.29068L2.10291 5.68653C2.16555 5.72248 2.23358 5.73948 2.30082 5.73948C2.4369 5.73948 2.56986 5.66875 2.6433 5.54158C2.75314 5.35258 2.6882 5.11018 2.49876 5.00078Z" fill="#234cad"/>
<path d="M17.582 13.7092L16.897 13.3134C16.7092 13.2051 16.4664 13.2689 16.3566 13.4583C16.2469 13.6474 16.3118 13.8897 16.5012 13.9991L17.1862 14.395C17.2488 14.4309 17.3168 14.4479 17.3841 14.4479C17.5202 14.4479 17.6531 14.3772 17.7266 14.25C17.8364 14.061 17.7714 13.8186 17.582 13.7092Z" fill="#234cad"/>
<path d="M2.375 9.49997C2.375 9.28117 2.19795 9.10413 1.97915 9.10413H0.395846C0.177049 9.10413 0 9.28117 0 9.49997C0 9.71877 0.177049 9.89582 0.395846 9.89582H1.97919C2.19795 9.89582 2.375 9.71877 2.375 9.49997Z" fill="#234cad"/>
<path d="M2.10291 13.3134L1.41795 13.7093C1.22854 13.8187 1.1636 14.061 1.27337 14.2501C1.34681 14.3772 1.47981 14.448 1.61585 14.448C1.68313 14.448 1.75193 14.431 1.81376 14.395L2.49872 13.9992C2.68813 13.8898 2.75307 13.6474 2.6433 13.4584C2.53353 13.2682 2.28924 13.2041 2.10291 13.3134Z" fill="#234cad"/>
<path d="M5.54167 16.356C5.35304 16.2481 5.11027 16.3119 5.00125 16.5009L4.6054 17.1866C4.49563 17.3761 4.56057 17.618 4.74998 17.7274C4.81262 17.7634 4.88064 17.7804 4.94788 17.7804C5.08396 17.7804 5.21771 17.7093 5.29037 17.5825L5.68621 16.8967C5.79605 16.7073 5.73111 16.4654 5.54167 16.356Z" fill="#234cad"/>
<path d="M9.50009 0C9.2813 0 9.10425 0.177049 9.10425 0.395845V9.49998C9.10425 9.71878 9.2813 9.89583 9.50009 9.89583H18.6042C18.823 9.89583 19.0001 9.71878 19.0001 9.49998C19.0001 4.26178 14.7387 0 9.50009 0ZM9.89594 9.10414V0.800559C14.3831 1.00236 17.9974 4.61703 18.1999 9.10414H9.89594Z" fill="#234cad"/>
</svg>

<svg width="19" height="19" fill="none" xmlns="http://www.w3.org/2000/svg"><path d="M9.5 16.625a.396.396 0 00-.396.396v1.583a.396.396 0 10.792 0v-1.583a.396.396 0 00-.396-.396zM5.29 1.417a.395.395 0 10-.685.396l.396.686a.395.395 0 10.685-.396l-.396-.686zM13.999 16.5a.396.396 0 10-.685.397l.396.686a.395.395 0 10.684-.396L14 16.5zM2.499 5l-.685-.395a.395.395 0 10-.396.686l.685.396A.396.396 0 002.499 5zM17.582 13.71l-.685-.397a.397.397 0 00-.396.686l.685.396a.396.396 0 00.396-.686zM2.375 9.5a.396.396 0 00-.396-.396H.396a.396.396 0 100 .792h1.583a.396.396 0 00.396-.396zM2.103 13.313l-.685.396a.395.395 0 10.396.686l.685-.396a.395.395 0 10-.396-.686zM5.542 16.356a.397.397 0 00-.54.145l-.397.686a.395.395 0 10.685.395l.396-.685a.395.395 0 00-.144-.541zM9.5 0a.396.396 0 00-.396.396V9.5c0 .219.177.396.396.396h9.104A.396.396 0 0019 9.5C19 4.262 14.74 0 9.5 0zm.396 9.104V.801c4.487.201 8.101 3.816 8.304 8.303H9.896z" fill="#234cad"/></svg>
